icons/solid/trending-down.svg

<svg width="24" height="24" viewBox="0 0 24 24" fill="none" xmlns="http://www.w3.org/2000/svg">
<path fill-rule="evenodd" clip-rule="evenodd" d="M3.70711 6.29289C3.31658 5.90237 2.68342 5.90237 2.29289 6.29289C1.90237 6.68342 1.90237 7.31658 2.29289 7.70711L8.29289 13.7071C8.68342 14.0976 9.31658 14.0976 9.70711 13.7071L13 10.4142L16.0858 13.5L13.2929 16.2929C13.0069 16.5789 12.9213 17.009 13.0761 17.3827C13.2309 17.7564 13.5955 18 14 18H21C21.5523 18 22 17.5523 22 17V10C22 9.59554 21.7564 9.2309 21.3827 9.07612C21.009 8.92134 20.5789 9.0069 20.2929 9.29289L17.5 12.0858L13.7071 8.29289C13.3166 7.90237 12.6834 7.90237 12.2929 8.29289L9 11.5858L3.70711 6.29289Z" fill="currentColor"/>
</svg>

<svg width="24" height="24" fill="none" xmlns="http://www.w3.org/2000/svg"><path fill-rule="evenodd" clip-rule="evenodd" d="M3.707 6.293a1 1 0 00-1.414 1.414l6 6a1 1 0 001.414 0L13 10.414l3.086 3.086-2.793 2.793A1 1 0 0014 18h7a1 1 0 001-1v-7a1 1 0 00-1.707-.707L17.5 12.086l-3.793-3.793a1 1 0 00-1.414 0L9 11.586 3.707 6.293z" fill="currentColor"/></svg>
